src/assets/icons/remotes/jottacloud.svg

<svg width="24" height="24" viewBox="0 0 24 24" fill="currentColor" xmlns="http://www.w3.org/2000/svg">
    <path
        d="M22 1.88281V15.3724C22 17.161 21.2977 18.8768 20.048 20.142C19.4319 20.767 18.6979 21.2635 17.8884 21.6025C17.0789 21.9416 16.2102 22.1165 15.3326 22.1172H12.6659V8.62762C12.6659 6.83902 13.3689 5.12319 14.6187 3.85801C15.2347 3.23299 15.9688 2.73654 16.7783 2.39747C17.5877 2.0584 18.4565 1.88346 19.3341 1.88281H22ZM2 12.674H4.66744C6.43594 12.674 8.13086 13.3848 9.38133 14.65C10.6345 15.921 11.3361 17.6347 11.3341 19.4196V22.1172H8.66746C7.78984 22.1165 6.92109 21.9416 6.1116 21.6025C5.30214 21.2635 4.56807 20.767 3.952 20.142C2.69986 18.8704 1.99864 17.157 2 15.3724V12.674Z" />
</svg>

<svg xmlns="http://www.w3.org/2000/svg" width="24" height="24" fill="currentColor" viewBox="0 0 24 24"><path d="M22 1.883v13.49a6.8 6.8 0 0 1-1.952 4.769 6.63 6.63 0 0 1-4.715 1.975h-2.667V8.627c0-1.788.703-3.504 1.953-4.769a6.63 6.63 0 0 1 4.715-1.975zM2 12.674h2.667c1.769 0 3.464.71 4.714 1.976a6.78 6.78 0 0 1 1.953 4.77v2.697H8.667a6.63 6.63 0 0 1-4.715-1.975A6.8 6.8 0 0 1 2 15.372z"/></svg>
